X:685
%%etbk:tnset id:521,pos:2,rep:3x,ant:
%%etbk:wsite https://thesession.org/tunes/2319
%%etbk:video src:ytube,cde:znqZhiTqt-8,desc:second tune
%%etbk:color #c1f5f5
%%etbk:pldat 2016-09-17T15:00,2016-09-16T17:08,2016-09-15T18:11,2016-09-13T16:42,2016-09-11T16:37,2016-09-10T14:29,2016-09-09T18:26,2016-09-08T18:30,2016-09-07T17:03,2016-09-06T18:30,2016-09-06T15:39,2016-09-04T13:35,2016-09-04T11:13,2016-09-03T11:00,2016-08-21T11:07,2016-08-17T17:21,2016-08-12T17:02,2016-08-11T19:20,2016-08-10T17:12,2016-08-09T16:39,2016-08-08T19:33,2015-12-15T15:12,2015-05-10T14:55,2015-04-27T19:10,2015-04-26T15:57,2015-04-26T14:42
T: Calum Breugach
Z: Piano Box Version by Martin Fleischmann
H: Created 2015-04-10 /  Last Modified 2016-09-07
R: strathspey
M: 4/4
L: 1/8
P: AA-B-C-B               % play the parts in this order
K: Ador
P:A
A|:"C"!3!G<!2!E E<G !1!D>!2!E!1!G>!3!B|"am"!2!A/2A/2A !5!e>!2!A c>A A<e|"C"!1!G<!2!E E<G D>EG>B|1"am"c>A B<G A2 (3ABA:|2"am"c>A B<G A2 A>f|
P:B
|"G"!4!g>g !5!a/2g/2f/2e/2 !1!d/2!3!c/2B/2!1!A/2 !2!G>!4!B|"am"!1!(A/B/c/d/) e>A c>Ae>f| "G"g>g a/2g/2f/2e/2 d/2c/2B/2A/2 !2!G>B| "am"!5!c>A B<G A2 A>!5!a |
!4!g<!5!b !3!e<!4!g !2!d>!4!g !1!B<!4!g| !1!G>!4!g !1!A>!5!a !1!B>!5!b !1!A<B| !1!G<!2!E E<G D>EG>B| !4!c>A B<G A2 A>a|
P:C
|: "C"!3!g>!2!e e<g !1!d>eg>!4!a| "am"!5!b<a (3aga b>a (3aba| "C"!3!g>e e<g d>eg>a|"am"!5!b<aa>g a4:|


